src/packages/admin-ui/src/assets/64-data-sources.svg

<?xml version="1.0" encoding="UTF-8"?>
<svg fill="none" viewBox="0 0 64 64" xmlns="http://www.w3.org/2000/svg">
<path d="m20.793 13.566c-5e-4 0 3e-4 -0.0047 0.0036-0.0142-0.0015 0.0095-0.0032 0.0142-0.0036 0.0142zm0.0202-0.0521c0.0312-0.0617 0.1066-0.1781 0.2804-0.3493 0.379-0.3733 1.0641-0.8323 2.126-1.2747 2.1119-0.88 5.2144-1.4871 8.7795-1.4871s6.6676 0.6071 8.7796 1.4871c1.0618 0.4424 1.747 0.9014 2.126 1.2747 0.1737 0.1712 0.2492 0.2876 0.2804 0.3493-0.0312 0.0617-0.1067 0.1781-0.2804 0.3492-0.379 0.3734-1.0642 0.8323-2.126 1.2747-2.112 0.88-5.2145 1.4872-8.7796 1.4872s-6.6676-0.6072-8.7795-1.4872c-1.0619-0.4424-1.747-0.9013-2.126-1.2747-0.1738-0.1711-0.2492-0.2875-0.2804-0.3492zm22.391 0.0499c4e-4 0.0015 8e-4 0.0022 1e-3 0.0022 4e-4 0-3e-4 -0.0047-0.0036-0.0142 9e-4 0.0057 0.0018 0.0097 0.0026 0.012zm-0.0026-0.0879c0.0015-0.0094 0.0031-0.0142 0.0036-0.0142 4e-4 0-3e-4 0.0048-0.0036 0.0142zm-22.405 0c-0.0033-0.0094-0.0041-0.0142-0.0036-0.0142 4e-4 0 0.0021 0.0048 0.0036 0.0142zm0.3717-6.5091c2.9067-1.2112 6.7376-1.8974 10.831-1.8974 4.0933 0 7.9241 0.68624 10.831 1.8974 1.4475 0.60314 2.7931 1.3892 3.8175 2.3984 1.0338 1.0184 1.885 2.422 1.885 4.1487 0 0.0745-0.0016 0.1485-0.0047 0.2219h0.0046v10.776l1e-4 0.0233-1e-4 0.0297v8.3481l1e-4 0.0232c0 1.7267-0.8512 3.1303-1.885 4.1487-1.0244 1.0092-2.37 1.7952-3.8175 2.3984-2.0665 0.861-4.6 1.4567-7.3628 1.7292v2.261c1.8607 0.9153 3.3071 2.5443 3.9821 4.5298h3.6342c1.0544-3.1018 3.9915-5.3334 7.4498-5.3334 4.3446 0 7.8667 3.5221 7.8667 7.8667 0 4.3447-3.5221 7.8667-7.8667 7.8667-3.3584 0-6.2252-2.1045-7.3538-5.0667h-3.8263c-1.1285 2.9622-3.9954 5.0667-7.3537 5.0667-3.3584 0-6.2253-2.1045-7.3538-5.0667h-4.092c-1.1285 2.9622-3.9953 5.0667-7.3537 5.0667-4.3447 0-7.8667-3.522-7.8667-7.8667 0-4.3446 3.522-7.8667 7.8667-7.8667 3.4583 0 6.3954 2.2316 7.4498 5.3334h3.8998c0.6752-1.9863 2.1225-3.6157 3.9842-4.5308v-2.2597c-2.7639-0.2724-5.2984-0.8682-7.3655-1.7295-1.4476-0.6032-2.7931-1.3892-3.8175-2.3984-1.0339-1.0184-1.885-2.422-1.885-4.1487l2e-4 -0.0298v-8.3332l-2e-4 -0.038 2e-4 -0.0298v-10.77h0.0045c-0.0031-0.0734-0.0047-0.1474-0.0047-0.2219 0-1.7267 0.8511-3.1303 1.885-4.1487 1.0244-1.0092 2.3699-1.7952 3.8175-2.3984zm-0.0747 26.319c-0.2088-0.2057-0.2756-0.3323-0.2943-0.3799v-2.7653c0.1821 0.067 0.3661 0.1313 0.5513 0.1931 2.8479 0.9493 6.6125 1.4907 10.648 1.4907 4.0361 0 7.8007-0.5414 10.648-1.4907 0.1853-0.0618 0.3693-0.1261 0.5514-0.1931v2.7651c-0.0186 0.0475-0.0853 0.1742-0.2943 0.3801-0.379 0.3733-1.0642 0.8323-2.126 1.2747-2.112 0.88-5.2145 1.4871-8.7796 1.4871s-6.6676-0.6071-8.7795-1.4871c-1.0619-0.4424-1.747-0.9014-2.126-1.2747zm-0.2208-9.0456c-0.028-0.022-0.0523-0.0421-0.0735-0.0602v-4.2779c0.1221 0.0542 0.2452 0.1071 0.369 0.1587 2.9067 1.2112 6.7376 1.8974 10.831 1.8974 4.0933 0 7.9241-0.6862 10.831-1.8974 0.1238-0.0516 0.2469-0.1045 0.369-0.1588v4.278c-0.0212 0.0181-0.0456 0.0382-0.0735 0.0602-0.3677 0.2898-1.065 0.6674-2.1644 1.0339-2.1709 0.7236-5.3397 1.2169-8.962 1.2169s-6.791-0.4933-8.9619-1.2169c-1.0994-0.3665-1.7967-0.7441-2.1644-1.0339zm-7.6728 23.763c-1.3991 0-2.5334 1.1342-2.5334 2.5333s1.1343 2.5333 2.5334 2.5333 2.5333-1.1342 2.5333-2.5333-1.1342-2.5333-2.5333-2.5333zm16.266 2.5333c0-1.3991 1.1342-2.5333 2.5334-2.5333 1.3991 0 2.5333 1.1342 2.5333 2.5333s-1.1342 2.5333-2.5333 2.5333c-1.3992 0-2.5334-1.1342-2.5334-2.5333zm21.067-2.5333c-1.3991 0-2.5333 1.1342-2.5333 2.5333s1.1342 2.5333 2.5333 2.5333 2.5333-1.1342 2.5333-2.5333-1.1342-2.5333-2.5333-2.5333z" clip-rule="evenodd" fill="#918C99" fill-rule="evenodd"/>
</svg>

<svg width="64" height="64" viewBox="0 0 64 64" fill="none" xmlns="http://www.w3.org/2000/svg">
<path fill-rule="evenodd" clip-rule="evenodd" d="M20.7927 13.5659C20.7922 13.5659 20.793 13.5612 20.7963 13.5517C20.7948 13.5612 20.7931 13.5659 20.7927 13.5659ZM20.8129 13.5138C20.8441 13.4521 20.9195 13.3357 21.0933 13.1645C21.4723 12.7912 22.1574 12.3322 23.2193 11.8898C25.3312 11.0098 28.4337 10.4027 31.9988 10.4027C35.5639 10.4027 38.6664 11.0098 40.7784 11.8898C41.8402 12.3322 42.5254 12.7912 42.9044 13.1645C43.0781 13.3357 43.1536 13.4521 43.1848 13.5138C43.1536 13.5755 43.0781 13.6919 42.9044 13.863C42.5254 14.2364 41.8402 14.6953 40.7784 15.1377C38.6664 16.0177 35.5639 16.6249 31.9988 16.6249C28.4337 16.6249 25.3312 16.0177 23.2193 15.1377C22.1574 14.6953 21.4723 14.2364 21.0933 13.863C20.9195 13.6919 20.8441 13.5755 20.8129 13.5138ZM43.204 13.5637C43.2044 13.5652 43.2048 13.5659 43.205 13.5659C43.2054 13.5659 43.2047 13.5612 43.2014 13.5517C43.2023 13.5574 43.2032 13.5614 43.204 13.5637ZM43.2014 13.4758C43.2029 13.4664 43.2045 13.4616 43.205 13.4616C43.2054 13.4616 43.2047 13.4664 43.2014 13.4758ZM20.7963 13.4758C20.793 13.4664 20.7922 13.4616 20.7927 13.4616C20.7931 13.4616 20.7948 13.4664 20.7963 13.4758ZM21.168 6.96674C24.0747 5.75558 27.9056 5.06934 31.9988 5.06934C36.0921 5.06934 39.9229 5.75558 42.8297 6.96674C44.2772 7.56988 45.6228 8.35594 46.6472 9.3651C47.681 10.3835 48.5322 11.7871 48.5322 13.5138C48.5322 13.5883 48.5306 13.6623 48.5275 13.7357H48.5321V24.5122L48.5322 24.5355L48.5321 24.5652V32.9133L48.5322 32.9365C48.5322 34.6632 47.681 36.0668 46.6472 37.0852C45.6228 38.0944 44.2772 38.8804 42.8297 39.4836C40.7632 40.3446 38.2297 40.9403 35.4669 41.2128V43.4738C37.3276 44.3891 38.774 46.0181 39.449 48.0036H43.0832C44.1376 44.9018 47.0747 42.6702 50.533 42.6702C54.8776 42.6702 58.3997 46.1923 58.3997 50.5369C58.3997 54.8816 54.8776 58.4036 50.533 58.4036C47.1746 58.4036 44.3078 56.2991 43.1792 53.3369H39.3529C38.2244 56.2991 35.3575 58.4036 31.9992 58.4036C28.6408 58.4036 25.7739 56.2991 24.6454 53.3369H20.5534C19.4249 56.2991 16.5581 58.4036 13.1997 58.4036C8.85503 58.4036 5.33301 54.8816 5.33301 50.5369C5.33301 46.1923 8.85503 42.6702 13.1997 42.6702C16.658 42.6702 19.5951 44.9018 20.6495 48.0036H24.5493C25.2245 46.0173 26.6718 44.3879 28.5335 43.4728V41.2131C25.7696 40.9407 23.2351 40.3449 21.168 39.4836C19.7204 38.8804 18.3749 38.0944 17.3505 37.0852C16.3166 36.0668 15.4655 34.6632 15.4655 32.9365L15.4657 32.9067V24.5735L15.4655 24.5355L15.4657 24.5057V13.7357H15.4702C15.4671 13.6623 15.4655 13.5883 15.4655 13.5138C15.4655 11.7871 16.3166 10.3835 17.3505 9.3651C18.3749 8.35594 19.7204 7.56988 21.168 6.96674ZM21.0933 33.2858C20.8845 33.0801 20.8177 32.9535 20.799 32.9059V30.1406C20.9811 30.2076 21.1651 30.2719 21.3503 30.3337C24.1982 31.283 27.9628 31.8244 31.9988 31.8244C36.0349 31.8244 39.7995 31.283 42.6473 30.3337C42.8326 30.2719 43.0166 30.2076 43.1987 30.1406V32.9057C43.1801 32.9532 43.1134 33.0799 42.9044 33.2858C42.5254 33.6591 41.8402 34.1181 40.7784 34.5605C38.6664 35.4405 35.5639 36.0476 31.9988 36.0476C28.4337 36.0476 25.3312 35.4405 23.2193 34.5605C22.1574 34.1181 21.4723 33.6591 21.0933 33.2858ZM20.8725 24.2402C20.8445 24.2182 20.8202 24.1981 20.799 24.18V19.9021C20.9211 19.9563 21.0442 20.0092 21.168 20.0608C24.0747 21.272 27.9056 21.9582 31.9988 21.9582C36.0921 21.9582 39.9229 21.272 42.8297 20.0608C42.9535 20.0092 43.0766 19.9563 43.1987 19.902V24.18C43.1775 24.1981 43.1531 24.2182 43.1252 24.2402C42.7575 24.53 42.0602 24.9076 40.9608 25.2741C38.7899 25.9977 35.6211 26.491 31.9988 26.491C28.3765 26.491 25.2078 25.9977 23.0369 25.2741C21.9375 24.9076 21.2402 24.53 20.8725 24.2402ZM13.1997 48.0036C11.8006 48.0036 10.6663 49.1378 10.6663 50.5369C10.6663 51.936 11.8006 53.0702 13.1997 53.0702C14.5988 53.0702 15.733 51.936 15.733 50.5369C15.733 49.1378 14.5988 48.0036 13.1997 48.0036ZM29.4658 50.5369C29.4658 49.1378 30.6 48.0036 31.9992 48.0036C33.3983 48.0036 34.5325 49.1378 34.5325 50.5369C34.5325 51.936 33.3983 53.0702 31.9992 53.0702C30.6 53.0702 29.4658 51.936 29.4658 50.5369ZM50.533 48.0036C49.1339 48.0036 47.9997 49.1378 47.9997 50.5369C47.9997 51.936 49.1339 53.0702 50.533 53.0702C51.9321 53.0702 53.0663 51.936 53.0663 50.5369C53.0663 49.1378 51.9321 48.0036 50.533 48.0036Z" fill="#918C99"/>
</svg>
